X: 1997
T: Yine Hicrân ile Gün Bitti
C: Melahat Pars
O: Turkey
F: http://compmusic.upf.edu/node/140
N: segah--sarki--aksak--yine_hicran_ile--melahat_pars
N: makam= segah
N: form= sarki
N: usul= aksak = 9/8
M: 9/8
L: 1/16
K: C _1/4B _1/4e ^f 
Q: 1/4=120
%%MIDI tuningsystem comma53
B4 ^3/4A2B2 B4 c2d2 cB | {c}B6 BcB^3/4A GAB6  | \
w:  Ah  yi ne  hic rân  *  i  |  *  le  SAZ  | 
d4 d2e2 c2B2 d6 | 
w:  gün  bit *  ti   | 
B2 c4 B2Bc de=fe dcB^3/4A  | B6d2 ^c2e2 d6 | \
w:  gü neş  *  bat *  *  *  tı  *  *  *  gö  |  nül   SAZ  | 
g2 g2=f2 e2e2 d2ef efed  | 
w:  gü neş  *  *  bat *  tı  *  *  *  gö  | 
{e}d6B2 c2B{c}^A B6 | B4^3/4A2 B2B4c2 d2cB  | \
w:  *  nül   SAZ  |  Ah  yi ne  hic rân  *  i  | 
{c}B6Bc B^3/4AGA B6 | 
w:  *  le  SAZ  | 
d4d2 e2c2 B2d6  | B2c4B2 Bcde =fedc B^3/4A | \
w:  gün  bit *  ti   |  gü neş  *  bat *  *  *  tı  *  *  *  gö  | 
B6 d2^c2 e2d6  | 
w:  nül   SAZ  | 
g2g2 =f2e2 e2d2 efef ed | {e}d6 B2c2 B2d6  | \
w:  gü neş  *  *  bat *  tı  *  *  *  gö  |  *  nül   SAZ  | 
d2g2 =f2e2 d2e^3/4f g2=fe d2 | 
w:  Ey vâh  *  *  ü *  *  mit   | 
g2 a2g2 =f2e2 {f}d2dc B^3/4AB2  | \
w:  se ni  *  *  bir  *  *  gün   | 
d2d4B2 c2B2 d6 | c4B2 c2d2 e2d2 c2Bd  | 
w:  da ha  *  SAZ  |  al dat *  tı  *  *  *  gö  | 
c6B2 Bcde dcB^A B2 | =f4d2 =e2d2 c2B2 c2d2  | \
w:  nül    |  al dat *  tı  *  *  *  gö  | 
B6d2 c2e2 d6 | 
w:  nül   SAZ  | 
d2 g2=f2 e2d2 e^3/4fg2 =fed2  | g2a2 g2=f2 e2{f}d2 dcB^3/4A B2 | 
w:  Ey vâh  *  *  ü *  *  mit   |  se ni  *  *  bir  *  *  gün   | 
d2 d4 B2c2 B2d6  | c4 B2c2 d2e2 d2c2 Bd | \
w:  da ha  *  SAZ  |  al dat *  tı  *  *  *  gö  | 
c6 B2Bc dedc B^AB2  | 
w:  nül    | 
=f4 d2=e2 d2c2 B2c2 d2 | B6 g2f2 ^e2f6  | \
w:  al dat *  tı  *  *  *  gö  |  nül   SAZ  | 
z4 ^e3g f4 a4 g2 | g3^3/4fe2 f2g8-g2  | 
w:  Bek le dim   |  göz *  le ri min   | 
f4 e2f2 d4 e6 | de =fedc B^3/4AB8-B2  | \
w:  nû ru  so lup   |  tit *  *  *  re *  ye *  rek    | 
c4 B2d2 c8 B2 | d3edc Bcd8-d2  | 
w:  nû ru  so lup   |  tit *  re *  ye *  rek    | 
d6B2 c2B2 d6 | d2 g2=f2 e2d2 e^3/4fg2 =fed2  | \
w:  SAZ  |  Ey vâh  *  *  ü *  *  mit   | 
g2a2 g2=f2 e2{f}d2 dcB^3/4A B2 | 
w:  se ni  *  *  bir  *  *  gün   | 
d2 d4 B2c2 B2d6  | c4 B2c2 d2e2 d2c2 Bd | \
w:  da ha  *  SAZ  |  al dat *  tı  *  *  *  gö  | 
c6 B2Bc dedc B^AB2  | 
w:  nül    | 
=f4 d2=e2 d2c2 B2c2 d2 | B6 d2c2 e2d6  | \
w:  al dat *  tı  *  *  *  gö  |  nül   SAZ  | 
d2g2 =f2e2 d2e^3/4f g2=fe d2 | 
w:  Ey vâh  *  *  ü *  *  mit   | 
g2 a2g2 =f2e2 {f}d2dc B^3/4AB2  | \
w:  se ni  *  *  bir  *  *  gün   | 
d2d4B2 c2B2 d6 | c4B2 c2d2 e2d2 c2Bd  | 
w:  da ha  *  SAZ  |  al dat *  tı  *  *  *  gö  | 
c6B2 Bcde dcB^A B2 | =f4d2 =e2d2 c2B2 c2d2  | \
w:  nül    |  al dat *  tı  *  *  *  gö  | 
B6|
w:  nül    | 


